X: 4632
T: Bowe's Favourite
R: reel
M: 4/4
K: Eminor
BE ~E2 GEED|EDA,D FBAF|GE ~E2 eE ~E2|FAdA BAGF|
EB, ~B,2GB, ~B,2|EDA,D FBAF|GE ~E2 eE ~E2|1 BdAF GEED:|2 BdAF GE E2||
|:e2 ge edAd|fdad bdad|e^def gfga|(b/a/g {a}g)f ebaf|
(g/f/e {f}e)^d e=dBd|AFDF dAFD|B,E ~E2 eE ~E2|1 BdAF GE E2:|2 BdAF GEED||

